X:529
T: The Gallowayglass
N: page 216
R: Jig
M: 6/8
L: 1/8
K: Ador
B|:"Am" cBA "Em"eBd|"Am" cAA A2B|cBA "C"efg|"G"BGG G2B|
"Am"cBA "Em" eBd|"Am"cea "Em"e2d|"Am"cBA "E"^GAB|"Am"cAA A2 e:|
"Am"a^ga "Em"e=fd|"Am"cAA A2B|cBA "C"e^fg|"G"BGG G2 e|
"Am"a^ga "Em"e=fd|"Am"cAA A2B|cBA "E"^GAB|"Am"cAA A2e|
"Am"a^ga "Em"e=fd|"Am"cAA A2B|cBA "C"e^fg|"G"BGG G2 e|
"Am"afg "Em"edB|"Am"ecA "E"B^GE|"Am"ABc "Em"dBe|"Am"cAA A2|
